advanced/dapps/react-dapp-v2-with-ethers/src/assets/erc20.svg

<svg height="32" viewBox="0 0 32 32" width="32" xmlns="http://www.w3.org/2000/svg"><g fill="none" fill-rule="evenodd"><path d="m16 32c8.836556 0 16-7.163444 16-16s-7.163444-16-16-16-16 7.163444-16 16 7.163444 16 16 16z" fill="#222"/><path d="m12.699847 10.8212511h-2.038917v1.9381165h2.4421185v1.0080039h-3.73419615v-6.67115295h3.72503255v1.01258572h-2.4329549v1.70444292h2.038917zm2.5154278.2703283v2.6757921h-1.2920777v-6.66657111h1.9976805c.6628422 0 1.1844026.17258075 1.5646969.51774744s.5704385.82625464.5704385 1.44327828c0 .3451667-.0801813.64451031-.2405463.89803982-.1603651.25352947-.3917455.45512827-.6941482.60480237.3482213.1160737.5986925.3085089.7514211.5773113s.2290918.6048003.2290918 1.0080039v.4856745c0 .186329.0213817.3818187.0641457.586475.042764.2046564.1191272.3543282.2290918.4490199v.0962186h-1.3378961c-.10691-.0977463-.1748732-.2573453-.2038917-.4788018-.0290184-.2214566-.0435274-.4421461-.0435274-.6620753v-.4673473c0-.3390575-.0702541-.6017468-.2107644-.7880757-.1405104-.186329-.3421091-.279492-.6048024-.279492zm0-1.0080039h.6964391c.2779661 0 .4894921-.0832359.6345842-.24971005.1450922-.1664742.2176372-.40243639.2176372-.70789363 0-.3115664-.0717813-.55898306-.2153462-.74225741-.1435649-.18327434-.3528-.27491014-.6277115-.27491014h-.7056028zm8.2564682 1.6128062.0091636.027491c.0122183.71477-.1702896 1.2500758-.5475293 1.6059335s-.9156001.5337838-1.6150972.5337838c-.7178245 0-1.2874937-.2115259-1.7090247-.6345842s-.6322934-1.0240364-.6322934-1.8029524v-1.97935308c0-.77586141.2038897-1.37760316.6116751-1.80524331.4077854-.42764014.9583639-.64145701 1.6517518-.64145701.7300429 0 1.2905485.17716255 1.6815338.53149295.3909853.35433041.5803659.89039984.5681476 1.60822437l-.0091637.02749102h-1.255423c0-.42764015-.0755995-.72698376-.2268008-.89803982-.1512014-.17105606-.4039635-.25658281-.7582939-.25658281-.3237847 0-.5666195.11683565-.7285119.35051044-.1618923.2336748-.2428373.59181805-.2428373 1.0744405v1.98851675c0 .485677.087054.8453475.2611647 1.0790223.1741106.2336748.4367999.3505105.7880757.3505105.3207302 0 .5513469-.0847631.6918572-.2542919.1405104-.1695288.2107645-.4711633.2107645-.9049126zm-7.7190188 14.2696695h-6.53919609v-1.3782163l2.95436769-3.731447c.4203092-.5669287.7220965-1.055653.9053708-1.4661875s.2749101-.7844086.2749101-1.1216334c0-.464295-.0891921-.83206-.2675792-1.1033061-.178387-.271246-.4532944-.406867-.8247304-.406867-.386098 0-.682998.1722753-.8907089.5168311s-.3115648.7856294-.3115648 1.3232342h-2.03066966l-.02199281-.0439857c-.01954926-.9530266.26879805-1.7606434.8650506-2.4228747.59625257-.6622313 1.39287307-.993342 2.38988557-.993342 1.0116744 0 1.794855.2797946 2.3495654.8393923s.8320614 1.3207857.8320614 2.283587c0 .650013-.1600572 1.2487002-.4801764 1.7960796s-.8564941 1.2780222-1.6091408 2.1919502l-1.4515255 2.1039791h3.856073zm7.7927863-3.8707349c0 1.2560402-.3005654 2.2408196-.9017053 2.9543677-.6011398.7135481-1.3928731 1.0703168-2.3752236 1.0703168-.9970125 0-1.7972985-.3567687-2.400882-1.0703168s-.9053708-1.6983275-.9053708-2.9543677v-2.925044c0-1.2462656.3005655-2.2298232.9017053-2.9507023.6011399-.7208791 1.3977604-1.0813132 2.3898856-1.0813132.9872378 0 1.7826366.3604341 2.3862201 1.0813132s.9053707 1.7044367.9053707 2.9507023zm-2.0746552-3.1083175c0-.7037735-.1087412-1.2511446-.3262267-1.6421299-.2174856-.3909853-.5143856-.586475-.8907089-.586475-.386098 0-.6854416.1954897-.8980398.586475-.2125983.3909853-.3188958.9383564-.3188958 1.6421299v3.276929c0 .7184355.1075193 1.2719157.3225612 1.6604573s.518051.5828095.9090363.5828095c.3763233 0 .6707797-.1942679.8833779-.5828095s.3188958-.9420218.3188958-1.6604573z" fill="#fff"/></g></svg>

<?xml version="1.0" encoding="UTF-8"?>
<svg width="32px" height="32px" viewBox="0 0 32 32" version="1.1" xmlns="http://www.w3.org/2000/svg" xmlns:xlink="http://www.w3.org/1999/xlink" xmlns:sketch="http://www.bohemiancoding.com/sketch/ns">
    <!-- Generator: Sketch 3.5.1 (25234) - http://www.bohemiancoding.com/sketch -->
    <title>Group</title>
    <desc>Created with Sketch.</desc>
    <defs></defs>
    <g id="Page-1" stroke="none" stroke-width="1" fill="none" fill-rule="evenodd" sketch:type="MSPage">
        <g id="Group" sketch:type="MSLayerGroup">
            <path d="M16,32 C24.836556,32 32,24.836556 32,16 C32,7.163444 24.836556,0 16,0 C7.163444,0 0,7.163444 0,16 C0,24.836556 7.163444,32 16,32 Z" id="Oval" fill="#222222" sketch:type="MSShapeGroup"></path>
            <path d="M12.699847,10.8212511 L10.66093,10.8212511 L10.66093,12.7593676 L13.1030485,12.7593676 L13.1030485,13.7673715 L9.36885235,13.7673715 L9.36885235,7.09621855 L13.0938849,7.09621855 L13.0938849,8.10880427 L10.66093,8.10880427 L10.66093,9.81324719 L12.699847,9.81324719 L12.699847,10.8212511 Z M15.2152748,11.0915794 L15.2152748,13.7673715 L13.9231971,13.7673715 L13.9231971,7.10080039 L15.9208776,7.10080039 C16.5837198,7.10080039 17.1052802,7.27338114 17.4855745,7.61854783 C17.8658688,7.96371452 18.056013,8.44480247 18.056013,9.06182611 C18.056013,9.40699281 17.9758317,9.70633642 17.8154667,9.95986593 C17.6551016,10.2133954 17.4237212,10.4149942 17.1213185,10.5646683 C17.4695398,10.680742 17.720011,10.8731772 17.8727396,11.1419796 C18.0254682,11.410782 18.1018314,11.7467799 18.1018314,12.1499835 L18.1018314,12.635658 C18.1018314,12.821987 18.1232131,13.0174767 18.1659771,13.222133 C18.2087411,13.4267894 18.2851043,13.5764612 18.3950689,13.6711529 L18.3950689,13.7673715 L17.0571728,13.7673715 C16.9502628,13.6696252 16.8822996,13.5100262 16.8532811,13.2885697 C16.8242627,13.0671131 16.8097537,12.8464236 16.8097537,12.6264944 L16.8097537,12.1591471 C16.8097537,11.8200896 16.7394996,11.5574003 16.5989893,11.3710714 C16.4584789,11.1847424 16.2568802,11.0915794 15.9941869,11.0915794 L15.2152748,11.0915794 Z M15.2152748,10.0835755 L15.9117139,10.0835755 C16.18968,10.0835755 16.401206,10.0003396 16.5462981,9.83386545 C16.6913903,9.66739125 16.7639353,9.43142906 16.7639353,9.12597182 C16.7639353,8.81440542 16.692154,8.56698876 16.5485891,8.38371441 C16.4050242,8.20044007 16.1957891,8.10880427 15.9208776,8.10880427 L15.2152748,8.10880427 L15.2152748,10.0835755 Z M23.471743,11.6963817 L23.4809066,11.7238727 C23.4931249,12.4386427 23.310617,12.9739485 22.9333773,13.3298062 C22.5561376,13.6856639 22.0177772,13.86359 21.3182801,13.86359 C20.6004556,13.86359 20.0307864,13.6520641 19.6092554,13.2290058 C19.1877244,12.8059475 18.976962,12.2049694 18.976962,11.4260534 L18.976962,9.44670032 C18.976962,8.67083891 19.1808517,8.06909716 19.5886371,7.64145701 C19.9964225,7.21381687 20.547001,7 21.2403889,7 C21.9704318,7 22.5309374,7.17716255 22.9219227,7.53149295 C23.312908,7.88582336 23.5022886,8.42189279 23.4900703,9.13971732 L23.4809066,9.16720834 L22.2254836,9.16720834 C22.2254836,8.73956819 22.1498841,8.44022458 21.9986828,8.26916852 C21.8474814,8.09811246 21.5947193,8.01258571 21.2403889,8.01258571 C20.9166042,8.01258571 20.6737694,8.12942136 20.511877,8.36309615 C20.3499847,8.59677095 20.2690397,8.9549142 20.2690397,9.43753665 L20.2690397,11.4260534 C20.2690397,11.9117304 20.3560937,12.2714009 20.5302044,12.5050757 C20.704315,12.7387505 20.9670043,12.8555862 21.3182801,12.8555862 C21.6390103,12.8555862 21.869627,12.7708231 22.0101373,12.6012943 C22.1506477,12.4317655 22.2209018,12.130131 22.2209018,11.6963817 L23.471743,11.6963817 Z M15.7527242,25.9660512 L9.21352811,25.9660512 L9.21352811,24.5878349 L12.1678958,20.8563879 C12.588205,20.2894592 12.8899923,19.8007349 13.0732666,19.3902004 C13.2565409,18.9796659 13.3481767,18.6057918 13.3481767,18.268567 C13.3481767,17.804272 13.2589846,17.436507 13.0805975,17.1652609 C12.9022105,16.8940149 12.6273031,16.7583939 12.2558671,16.7583939 C11.8697691,16.7583939 11.5728691,16.9306692 11.3651582,17.275225 C11.1574473,17.6197808 11.0535934,18.0608544 11.0535934,18.5984592 L9.02292374,18.5984592 L9.00093093,18.5544735 C8.98138167,17.6014469 9.26972898,16.7938301 9.86598153,16.1315988 C10.4622341,15.4693675 11.2588546,15.1382568 12.2558671,15.1382568 C13.2675415,15.1382568 14.0507221,15.4180514 14.6054325,15.9776491 C15.1601429,16.5372468 15.4374939,17.2984348 15.4374939,18.2612361 C15.4374939,18.9112491 15.2774367,19.5099363 14.9573175,20.0573157 C14.6371983,20.6046951 14.1008234,21.3353379 13.3481767,22.2492659 L11.8966512,24.353245 L15.7527242,24.353245 L15.7527242,25.9660512 Z M23.5455105,22.0953163 C23.5455105,23.3513565 23.2449451,24.3361359 22.6438052,25.049684 C22.0426654,25.7632321 21.2509321,26.1200008 20.2685816,26.1200008 C19.2715691,26.1200008 18.4712831,25.7632321 17.8676996,25.049684 C17.2641161,24.3361359 16.9623288,23.3513565 16.9623288,22.0953163 L16.9623288,19.1702723 C16.9623288,17.9240067 17.2628943,16.9404491 17.8640341,16.21957 C18.465174,15.4986909 19.2617945,15.1382568 20.2539197,15.1382568 C21.2411575,15.1382568 22.0365563,15.4986909 22.6401398,16.21957 C23.2437233,16.9404491 23.5455105,17.9240067 23.5455105,19.1702723 L23.5455105,22.0953163 Z M21.4708553,18.9869988 C21.4708553,18.2832253 21.3621141,17.7358542 21.1446286,17.3448689 C20.927143,16.9538836 20.630243,16.7583939 20.2539197,16.7583939 C19.8678217,16.7583939 19.5684781,16.9538836 19.3558799,17.3448689 C19.1432816,17.7358542 19.0369841,18.2832253 19.0369841,18.9869988 L19.0369841,22.2639278 C19.0369841,22.9823633 19.1445034,23.5358435 19.3595453,23.9243851 C19.5745872,24.3129267 19.8775963,24.5071946 20.2685816,24.5071946 C20.6449049,24.5071946 20.9393613,24.3129267 21.1519595,23.9243851 C21.3645577,23.5358435 21.4708553,22.9823633 21.4708553,22.2639278 L21.4708553,18.9869988 Z" id="ERC" fill="#FFFFFF" sketch:type="MSShapeGroup"></path>
        </g>
    </g>
</svg>
